packages/ffe-icons/icons/filled/md/sprinkler.svg

<svg xmlns="http://www.w3.org/2000/svg" height="24" viewBox="0 -960 960 960" width="24"><path d="M480-484.616q-14.692 0-25.038-10.346T444.616-520q0-14.692 10.346-25.038T480-555.384q14.692 0 25.038 10.346T515.384-520q0 14.692-10.346 25.038T480-484.616Zm0-160q-14.692 0-25.038-10.346T444.616-680q0-14.692 10.346-25.038T480-715.384q14.692 0 25.038 10.346T515.384-680q0 14.692-10.346 25.038T480-644.616Zm0-160q-14.692 0-25.038-10.346T444.616-840q0-14.692 10.346-25.038T480-875.384q14.692 0 25.038 10.346T515.384-840q0 14.692-10.346 25.038T480-804.616Zm120 400q-14.692 0-25.038-10.346T564.616-440q0-14.692 10.346-25.038T600-475.384q14.692 0 25.038 10.346T635.384-440q0 14.692-10.346 25.038T600-404.616Zm113-114q-14.692 0-25.038-10.346T677.616-554q0-14.692 10.346-25.038T713-589.384q14.692 0 25.038 10.346T748.384-554q0 14.692-10.346 25.038T713-518.616Zm113-112q-14.692 0-25.038-10.346T790.616-666q0-14.692 10.346-25.038T826-701.384q14.692 0 25.038 10.346T861.384-666q0 14.692-10.346 25.038T826-630.616Zm-466 226q-14.692 0-25.038-10.346T324.616-440q0-14.692 10.346-25.038T360-475.384q14.692 0 25.038 10.346T395.384-440q0 14.692-10.346 25.038T360-404.616Zm-113-114q-14.692 0-25.038-10.346T211.616-554q0-14.692 10.346-25.038T247-589.384q14.692 0 25.038 10.346T282.384-554q0 14.692-10.346 25.038T247-518.616Zm-113-112q-14.692 0-25.038-10.346T98.616-666q0-14.692 10.346-25.038T134-701.384q14.692 0 25.038 10.346T169.384-666q0 14.692-10.346 25.038T134-630.616Zm316.001 380.615H320q-12.75 0-21.374-8.628-8.625-8.629-8.625-21.384 0-12.756 8.625-21.371 8.624-8.615 21.374-8.615h320q12.75 0 21.375 8.628 8.624 8.629 8.624 21.384 0 12.756-8.624 21.371-8.625 8.615-21.375 8.615H509.999V-120q0 12.75-8.628 21.374Q492.742-90 479.987-90q-12.756 0-21.371-8.624-8.615-8.625-8.615-21.375v-130.001Z"/></svg>

<svg xmlns="http://www.w3.org/2000/svg" height="24" viewBox="0 -960 960 960" width="24"><path d="M480-484.62q-14.69 0-25.04-10.34-10.34-10.35-10.34-25.04t10.34-25.04q10.35-10.34 25.04-10.34t25.04 10.34q10.34 10.35 10.34 25.04t-10.34 25.04q-10.35 10.34-25.04 10.34Zm0-160q-14.69 0-25.04-10.34-10.34-10.35-10.34-25.04t10.34-25.04q10.35-10.34 25.04-10.34t25.04 10.34q10.34 10.35 10.34 25.04t-10.34 25.04q-10.35 10.34-25.04 10.34Zm0-160q-14.69 0-25.04-10.34-10.34-10.35-10.34-25.04t10.34-25.04q10.35-10.34 25.04-10.34t25.04 10.34q10.34 10.35 10.34 25.04t-10.34 25.04q-10.35 10.34-25.04 10.34Zm120 400q-14.69 0-25.04-10.34-10.34-10.35-10.34-25.04t10.34-25.04q10.35-10.34 25.04-10.34t25.04 10.34q10.34 10.35 10.34 25.04t-10.34 25.04q-10.35 10.34-25.04 10.34Zm113-114q-14.69 0-25.04-10.34-10.34-10.35-10.34-25.04t10.34-25.04q10.35-10.34 25.04-10.34t25.04 10.34q10.34 10.35 10.34 25.04t-10.34 25.04q-10.35 10.34-25.04 10.34Zm113-112q-14.69 0-25.04-10.34-10.34-10.35-10.34-25.04t10.34-25.04q10.35-10.34 25.04-10.34t25.04 10.34q10.34 10.35 10.34 25.04t-10.34 25.04q-10.35 10.34-25.04 10.34Zm-466 226q-14.69 0-25.04-10.34-10.34-10.35-10.34-25.04t10.34-25.04q10.35-10.34 25.04-10.34t25.04 10.34q10.34 10.35 10.34 25.04t-10.34 25.04q-10.35 10.34-25.04 10.34Zm-113-114q-14.69 0-25.04-10.34-10.34-10.35-10.34-25.04t10.34-25.04q10.35-10.34 25.04-10.34t25.04 10.34q10.34 10.35 10.34 25.04t-10.34 25.04q-10.35 10.34-25.04 10.34Zm-113-112q-14.69 0-25.04-10.34Q98.62-651.31 98.62-666t10.34-25.04q10.35-10.34 25.04-10.34t25.04 10.34q10.34 10.35 10.34 25.04t-10.34 25.04q-10.35 10.34-25.04 10.34ZM450-250H320q-12.75 0-21.37-8.63-8.63-8.63-8.63-21.38 0-12.76 8.63-21.37Q307.25-310 320-310h320q12.75 0 21.37 8.63 8.63 8.63 8.63 21.38 0 12.76-8.63 21.37Q652.75-250 640-250H510v130q0 12.75-8.63 21.37Q492.74-90 479.99-90q-12.76 0-21.37-8.63Q450-107.25 450-120v-130Z"/></svg>
